packages/sources/icons/src/vitamix/message-line.svg

<svg width="16" height="16" viewBox="0 0 16 16" xmlns="http://www.w3.org/2000/svg"><path fill-rule="evenodd" clip-rule="evenodd" d="M4.30331 12.6667L1.33331 15V2.66667C1.33331 2.29848 1.63179 2 1.99998 2H14C14.3682 2 14.6666 2.29848 14.6666 2.66667V12C14.6666 12.3682 14.3682 12.6667 14 12.6667H4.30331ZM3.84198 11.3333H13.3333V3.33333H2.66665V12.2567L3.84198 11.3333ZM8.66665 6.66667H7.33331V8H8.66665V6.66667ZM4.66665 6.66667H5.99998V8H4.66665V6.66667ZM11.3333 6.66667H9.99998V8H11.3333V6.66667Z"/></svg>

<svg width="16" height="16" xmlns="http://www.w3.org/2000/svg"><path fill-rule="evenodd" clip-rule="evenodd" d="M4.303 12.667 1.333 15V2.667C1.333 2.298 1.632 2 2 2h12c.368 0 .667.298.667.667V12a.667.667 0 0 1-.667.667H4.303Zm-.461-1.334h9.491v-8H2.667v8.924l1.175-.924Zm4.825-4.666H7.333V8h1.334V6.667Zm-4 0H6V8H4.667V6.667Zm6.666 0H10V8h1.333V6.667Z"/></svg>
